X:18879
T:Within a Mile of Dublin
R:reel
D:Masters of the Folk Violin
Z:Devin McCabe
M:4/4
L:1/8
K:DMix
ADDE ~F3G|AD (3DDD cDBD|ADDE FEFG|AdcA G2FG|
!AD (3DDD AD (3EFG|ADBD cBAG|ADDE ~F3G|AdcA G2FG|
!Addc AG (3EFG|Adde fded|A2dc AGFG|AdcA G2FG|
!Addc AGFG|Adde ~f3g|afge fdec|dcAF G2FG||


